packages/core/src/svgs/tig.svg

<svg width="24" height="24" viewBox="0 0 24 24" fill="none" xmlns="http://www.w3.org/2000/svg">
<g clip-path="url(#clip0_31_19694)">
<path d="M0 0H24V24H0V0Z" fill="url(#paint0_linear_31_19694)"/>
<path d="M11.5502 11.1128H11.5416V11.1042C12.6816 9.10707 13.813 7.10564 14.9616 5.11279C14.9788 5.0785 14.9959 5.04422 15.0045 5.00993L14.7816 4.99279L15.6945 4.28564L15.6088 5.42136L15.4159 5.24564C14.1892 7.2428 12.8999 9.20091 11.5502 11.1171V11.1128ZM14.3059 5.87564C14.1473 6.08136 13.9588 6.11993 13.723 6.02136C12.5222 5.50602 11.1862 5.39619 9.91733 5.7085C9.46304 5.81993 9.01733 5.97422 8.58876 6.16707C8.41733 6.24422 8.22876 6.30422 8.02304 6.34707C7.9459 6.36422 7.8559 6.38993 7.77876 6.39422C8.4259 7.6585 9.10733 8.9185 9.70733 10.2085C8.94876 8.84564 8.16447 7.49993 7.38876 6.14993C7.3759 6.13279 7.40161 6.12422 7.41447 6.13279C7.5259 6.1885 7.6459 6.20993 7.77447 6.19707C7.9159 6.18422 8.05733 6.1585 8.19019 6.11993C8.43447 6.05564 8.64447 5.9785 8.82876 5.89707C9.48727 5.59185 10.1856 5.3812 10.903 5.27136C11.4216 5.20279 11.8588 5.18136 12.2145 5.20707C12.9388 5.26279 13.663 5.53707 14.3059 5.87564Z" fill="white"/>
<path d="M17.6699 11.1301C17.6742 11.5587 17.7128 11.9787 17.7471 12.4072C17.7642 12.6001 17.8456 12.9944 17.9999 13.1101C16.5284 13.0765 15.0634 12.9043 13.6242 12.5958C14.9656 12.5958 16.3156 12.853 17.6571 12.8615C17.6785 12.8615 17.6956 12.8401 17.6871 12.8187C17.6148 12.641 17.5714 12.4529 17.5585 12.2615C17.5156 11.893 17.5585 11.5115 17.5028 11.143C17.3436 9.85598 16.7653 8.65715 15.8571 7.73154C15.7413 7.61582 15.5999 7.44439 15.5785 7.29868C15.5699 7.21296 15.5356 7.14868 15.5185 7.06296C15.5142 7.03725 15.4971 7.31582 15.4885 7.34582C15.4285 7.51725 15.3813 7.65011 15.2656 7.81725C15.024 8.14261 14.8266 8.49857 14.6785 8.87582C14.5842 9.11582 14.4985 9.35582 14.4171 9.60439C14.1085 10.5215 13.3713 11.2758 13.1742 12.2315C12.9085 13.1765 12.9115 14.1768 13.1828 15.1201C13.4276 15.9862 13.9596 16.7433 14.6913 17.2672C14.8199 17.3615 14.9613 17.4601 15.1113 17.5544C15.1585 17.5844 15.2056 17.6315 15.2442 17.6958C15.3685 17.8801 14.9699 17.8544 14.8928 17.8501C14.4856 17.8287 14.0956 17.7558 13.7228 17.6358C13.5685 17.5887 13.4099 17.5415 13.2728 17.4772C13.7859 17.858 14.3749 18.1241 14.9999 18.2572C14.0571 18.7287 13.0585 18.793 12.0128 18.8487C11.7471 18.8658 11.4813 18.853 11.2199 18.8187C10.9799 18.7844 10.7828 18.6087 10.8385 18.3558C10.8771 18.1844 10.8899 18.0044 10.8813 17.8158C10.8236 17.3242 10.639 16.856 10.3456 16.4572C10.1913 16.2215 10.0028 16.0758 9.71563 16.1058C9.35724 16.1695 9.02348 16.3312 8.75134 16.573C8.30991 16.9158 7.8642 17.2587 7.36706 17.5244C7.10991 17.6615 6.80991 17.743 6.52277 17.8158C6.39848 17.8415 6.2742 17.8501 6.14563 17.833C5.99991 17.8115 5.98706 17.5844 5.99991 17.4772C6.04277 17.0487 6.17563 16.573 6.38563 16.1915L6.95134 15.1415C7.32848 14.4472 8.05706 13.5387 8.80277 13.2644C8.88848 13.2344 8.93134 13.3287 8.93563 13.393C8.96134 13.693 8.63563 14.0444 8.42134 14.2072C8.05277 14.4901 7.75706 14.7901 7.7142 15.2658C7.68061 15.4999 7.58436 15.7205 7.43563 15.9044C7.25563 16.1615 7.08848 16.4358 6.92134 16.7015C7.28563 16.3158 7.61991 15.8744 7.95848 15.4587C8.31848 15.013 8.57991 14.5458 9.05563 14.1944C9.23991 14.0658 9.44563 13.9801 9.64706 13.873C9.81848 13.7872 10.2299 13.4872 9.93848 13.273C9.76706 13.1487 9.55706 13.0758 9.30848 13.0587C8.99991 13.0287 8.76848 12.9687 8.58848 12.7072C8.41021 12.4433 8.31062 12.1342 8.30134 11.8158C8.30134 11.6444 8.33134 11.473 8.39991 11.3187C8.4901 11.108 8.65796 10.9401 8.86864 10.85C9.07933 10.7598 9.31665 10.7542 9.53134 10.8344C9.8142 10.9287 9.9942 11.1901 10.3028 11.2372L10.5171 11.2801C10.5599 11.293 10.5813 11.323 10.5771 11.3658C10.5513 11.683 10.8171 11.7944 10.8771 12.0901C10.8942 12.2015 10.8128 12.3087 10.7528 12.3987C10.6499 12.5615 10.8428 12.5701 10.8728 12.6815C10.9285 12.9215 10.7913 13.273 10.7485 13.513C10.9199 13.2987 10.9842 12.9601 11.0785 12.7158C11.2156 12.3472 11.3871 12.043 11.6271 11.743C11.8928 11.4215 12.2613 11.1815 12.5142 10.8515C12.9042 10.3287 13.3285 9.84011 13.6499 9.27439C13.8856 8.84582 14.0871 8.43439 14.2413 8.02725C14.3399 7.77868 14.5242 7.57725 14.6571 7.34153C14.7428 7.18725 14.8285 7.00725 14.9013 6.81439C14.9485 6.69439 15.0856 6.48439 15.2442 6.59153C16.2299 7.27725 16.9156 8.16868 17.2971 9.27011C17.4985 9.85725 17.6228 10.4744 17.6656 11.1301H17.6699Z" fill="white"/>
</g>
<defs>
<linearGradient id="paint0_linear_31_19694" x1="18.8571" y1="3.21429" x2="6" y2="21.4286" gradientUnits="userSpaceOnUse">
<stop stop-color="#0149DC"/>
<stop offset="1" stop-color="#920BBD"/>
</linearGradient>
<clipPath id="clip0_31_19694">
<rect width="24" height="24" fill="white"/>
</clipPath>
</defs>
</svg>

<svg xmlns="http://www.w3.org/2000/svg" width="24" height="24" fill="none" viewBox="0 0 24 24"><g clip-path="url(#a)"><path fill="url(#b)" d="M0 0h24v24H0z"/><path fill="#fff" d="M11.55 11.113h-.008v-.009c1.14-1.997 2.271-3.998 3.42-5.991a.5.5 0 0 0 .043-.103l-.223-.017.912-.707-.085 1.135-.193-.175a112 112 0 0 1-3.866 5.871zm2.756-5.237c-.159.205-.347.244-.583.145a6 6 0 0 0-3.806-.312 7.7 7.7 0 0 0-1.328.458q-.258.115-.566.18c-.077.017-.167.043-.244.047.647 1.265 1.328 2.524 1.928 3.815-.758-1.363-1.543-2.71-2.318-4.06-.013-.016.013-.025.025-.016a.65.65 0 0 0 .36.064q.215-.019.416-.077c.244-.064.454-.141.639-.223a7.7 7.7 0 0 1 2.074-.626q.779-.102 1.311-.064c.725.056 1.449.33 2.092.669"/><path fill="#fff" d="M17.67 11.13c.004.429.043.849.077 1.277.017.193.099.587.253.703a23.4 23.4 0 0 1-4.376-.514c1.342 0 2.692.257 4.033.265.021 0 .039-.02.03-.042a1.8 1.8 0 0 1-.129-.558c-.042-.368 0-.75-.055-1.118a5.9 5.9 0 0 0-1.646-3.411c-.116-.116-.257-.288-.278-.433-.01-.086-.043-.15-.06-.236-.005-.026-.022.253-.03.283-.06.171-.108.304-.223.471a4.6 4.6 0 0 0-.588 1.059c-.094.24-.18.48-.26.728-.31.918-1.047 1.672-1.244 2.628a5.3 5.3 0 0 0 .009 2.888 3.97 3.97 0 0 0 1.508 2.147q.194.144.42.287c.047.03.095.078.133.142.124.184-.274.158-.351.154a4.6 4.6 0 0 1-1.17-.214c-.155-.047-.313-.095-.45-.159.513.381 1.102.647 1.727.78-.943.472-1.941.536-2.987.592a4 4 0 0 1-.793-.03c-.24-.035-.437-.21-.382-.463q.058-.258.043-.54a2.85 2.85 0 0 0-.535-1.359c-.155-.236-.343-.381-.63-.351a1.97 1.97 0 0 0-.965.467c-.441.343-.887.686-1.384.951-.257.137-.557.219-.844.292a1.1 1.1 0 0 1-.377.017c-.146-.021-.159-.249-.146-.356.043-.428.176-.904.386-1.285l.565-1.05c.377-.695 1.106-1.603 1.852-1.878.085-.03.128.065.133.129.025.3-.3.651-.515.814-.368.283-.664.583-.707 1.059-.033.234-.13.454-.278.638-.18.258-.348.532-.515.797.365-.385.699-.827 1.037-1.242.36-.446.622-.913 1.098-1.265.184-.128.39-.214.591-.321.171-.086.583-.386.291-.6a1.2 1.2 0 0 0-.63-.214c-.308-.03-.54-.09-.72-.352a1.7 1.7 0 0 1-.287-.891c0-.172.03-.343.099-.497a.89.89 0 0 1 1.131-.485c.283.095.463.356.772.403l.214.043q.065.02.06.086c-.026.317.24.428.3.724.017.111-.064.219-.124.309-.103.163.09.171.12.283.056.24-.082.591-.124.831.17-.214.235-.553.33-.797.137-.369.308-.673.548-.973.266-.322.634-.562.887-.892.39-.522.815-1.01 1.136-1.577.236-.428.437-.84.591-1.247.099-.248.283-.45.416-.685.086-.155.172-.335.244-.528.047-.12.185-.33.343-.222q1.48 1.027 2.053 2.678c.201.587.326 1.204.369 1.86z"/></g><defs><linearGradient id="b" x1="18.857" x2="6" y1="3.214" y2="21.429" gradientUnits="userSpaceOnUse"><stop stop-color="#0149DC"/><stop offset="1" stop-color="#920BBD"/></linearGradient><clipPath id="a"><path fill="#fff" d="M0 0h24v24H0z"/></clipPath></defs></svg>
